src/assets/icons/star-filled.svg

<svg width="24" height="24" viewBox="0 0 24 24" fill="none" xmlns="http://www.w3.org/2000/svg">
<path d="M11.6413 5.28002C11.788 4.98266 12.212 4.98266 12.3587 5.28002L14.1641 8.93932L18.1978 9.52251C18.5259 9.56994 18.6572 9.97303 18.42 10.2046L15.5041 13.051L16.1917 17.0724C16.2476 17.399 15.9049 17.648 15.6115 17.494L12 15.598L8.38849 17.494C8.09513 17.648 7.75244 17.399 7.80828 17.0724L8.49588 13.051L5.58004 10.2046C5.3428 9.97303 5.4741 9.56995 5.80221 9.52251L9.83593 8.93932L11.6413 5.28002Z" fill="#314158" stroke="#314158" stroke-width="1.5" stroke-linecap="round" stroke-linejoin="round"/>
</svg>

<svg fill="none" viewBox="0 0 24 24"><path fill="currentColor" stroke="currentColor" stroke-linecap="round" stroke-linejoin="round" stroke-width="1.5" d="M11.641 5.28a.4.4 0 0 1 .718 0l1.805 3.66 4.034.583a.4.4 0 0 1 .222.682l-2.916 2.846.688 4.021a.4.4 0 0 1-.58.422L12 15.598l-3.612 1.896a.4.4 0 0 1-.58-.422l.688-4.021-2.916-2.846a.4.4 0 0 1 .222-.682l4.034-.584z"/></svg>
